!!!OTL: Jacobslied. / (Pilgergesang der Jacobs-Brueder im 14. bis 16. Jahrhundert.) / Andere Lesart.
!!!ARE: Europa, Mitteleuropa, Deutschland
!!!SCT: A0610B
!!!TXL: @@GMH
!!!YEM: Copyright 1995, estate of Helmut Schaffrath.
**kern	**text
*M4/1	*
*met(c|)	*
*clefC3	*
*k[b-]	*
*G:dor	*
=1	=1
!LO:TX:a:t=dor. tr.	!
{1B-	Wer
1B-	das
1c	el-
1c	-lend
=2	=2
1.d	baw-
2d	-en
1d	wil,
2r}	.
{2d	der
=3	=3
1d	heb
1d	ſich
1d	auff
1d	vnd
=4	=4
1c	ʒieh
1B-	da-
1c	-hin,
2r}	.
{2c	wol
=5	=5
1d	auff
1d	ſant
1B-	Ja-
1B-	-cob
=6	=6
0G	ſtra-
0F}	-ßen,
=7||	=7||
{1d	ʒwey
1d	par
*lig	*
1.B-	ſchuch
2c/	.
=8	=8
1d	.
*Xlig	*
1B-	die
1c	muß
1c	er
=9	=9
*lig	*
1.A	han,
2B-	.
1c	.
*Xlig	*
2r}	.
{2c	ein
=10	=10
1B-	ſchüſ-
1A	-ſel
1G	bey
1B-	der
=11	=11
*lig	*
2A	fla-
2G	.
1A	.
*Xlig	*
0G/ll}	-ſchen.
==	==
!!!GTL: Geistliche Volkslieder
!!!AGN: Romanze, Ballade, Lied, religioeses Lied
!! Muenchner Hs. Ende des 15. Jh.
!!!ONB: ESAC (Essen Associative Code) Database: ALTDEU
!!!AMT: simple quadruple
!!!AIN: vox
!!!EED: Helmut Schaffrath
!!!EEV: 1.0
!!!RDF**kern: l = terminal long
!!!AMD: Dorian
!!!URL-scan: https://rosdok.uni-rostock.de/mcrviewer/recordIdentifier/rosdok_ppn738218359/iview2/phys_0791.iview2?x=-1021.1722681204792&y=-724.4016091441736&scale=0.35534665417946304&rotation=0&layout=singlePageLayout&logicalDiv=log_0007
!!!ENC: Anna Maria Matuszewska
!!!EEV: 2024/25/03
*-	*-
